watermark-image.svg

<?xml version="1.0" encoding="UTF-8" standalone="no"?>
<svg
   xmlns:dc="http://purl.org/dc/elements/1.1/"
   xmlns:cc="http://creativecommons.org/ns#"
   xmlns:rdf="http://www.w3.org/1999/02/22-rdf-syntax-ns#"
   xmlns:svg="http://www.w3.org/2000/svg"
   xmlns="http://www.w3.org/2000/svg"
   id="svg4501"
   version="1.1"
   viewBox="0 0 1012.174 1012.174"
   height="1012.174mm"
   width="1012.174mm">
  <defs
     id="defs4495" />
  <metadata
     id="metadata4498">
    <rdf:RDF>
      <cc:Work
         rdf:about="">
        <dc:format>image/svg+xml</dc:format>
        <dc:type
           rdf:resource="http://purl.org/dc/dcmitype/StillImage" />
        <dc:title></dc:title>
      </cc:Work>
    </rdf:RDF>
  </metadata>
  <g
     transform="translate(463.7538,397.3194)"
     id="layer1">
    <g
       transform="matrix(-1,0,0,1,84.66668,0)"
       id="g5076">
      <path
         id="path5046"
         d="m 42.33398,-397.3203 c 134.20342,0 262.96122,53.3343 357.85742,148.2305 94.8962,94.8961 148.2285,223.65392 148.2285,357.8574 0,134.2034 -53.3323,262.9612 -148.2285,357.8574 -94.8962,94.8962 -223.654,148.2305 -357.85742,148.2305 -134.20345,0 -262.96128,-53.3343 -357.85738,-148.2305 -94.8962,-94.8962 -148.2305,-223.654 -148.2305,-357.8574 0,-134.20348 53.3343,-262.9613 148.2305,-357.8574 94.8961,-94.8962 223.65393,-148.2305 357.85738,-148.2305 z m 0,100 c -107.72022,0 -210.97868,42.7717 -287.14848,118.9414 -76.1697,76.1697 -118.9394,179.42625 -118.9394,287.1465 0,107.7202 42.7697,210.9768 118.9394,287.1465 76.1698,76.1697 179.42826,118.9414 287.14848,118.9414 107.72022,0 210.97682,-42.7717 287.14652,-118.9414 76.1697,-76.1697 118.9394,-179.4263 118.9394,-287.1465 0,-107.72025 -42.7697,-210.9768 -118.9394,-287.1465 -76.1697,-76.1697 -179.4263,-118.9414 -287.14652,-118.9414 z"
         style="color:#000000;font-style:normal;font-variant:normal;font-weight:normal;font-stretch:normal;font-size:medium;line-height:normal;font-family:sans-serif;font-variant-ligatures:normal;font-variant-position:normal;font-variant-caps:normal;font-variant-numeric:normal;font-variant-alternates:normal;font-feature-settings:normal;text-indent:0;text-align:start;text-decoration:none;text-decoration-line:none;text-decoration-style:solid;text-decoration-color:#000000;letter-spacing:normal;word-spacing:normal;text-transform:none;writing-mode:lr-tb;direction:ltr;text-orientation:mixed;dominant-baseline:auto;baseline-shift:baseline;text-anchor:start;white-space:normal;shape-padding:0;clip-rule:nonzero;display:inline;overflow:visible;visibility:visible;opacity:1;isolation:auto;mix-blend-mode:normal;color-interpolation:sRGB;color-interpolation-filters:linearRGB;solid-color:#000000;solid-opacity:1;vector-effect:none;fill:#000000;fill-opacity:1;fill-rule:nonzero;stroke:none;stroke-width:100;stroke-linecap:butt;stroke-linejoin:round;stroke-miterlimit:4;stroke-dasharray:none;stroke-dashoffset:0;stroke-opacity:1;paint-order:normal;color-rendering:auto;image-rendering:auto;shape-rendering:auto;text-rendering:auto;enable-background:accumulate" />
      <path
         id="circle5048"
         d="M 34.73047,-245.3359 C 139.3805,-247.4621 243.0379,-203.2666 313.8145,-118.8516 421.6644,9.780852 424.2396,197.3055 319.9609,328.8496 215.6822,460.3937 32.51661,500.6798 -117.332,425.0273 l 45.06638,-89.2695 C 35.74655,390.2887 166.4307,361.5466 241.5957,266.7285 316.7607,171.9104 314.9247,38.11582 237.1855,-54.60352 159.4464,-147.3228 28.02358,-172.4672 -78.45117,-114.9922 l -47.50193,-87.998 c 50.77726,-27.4096 105.86687,-41.232 160.68357,-42.3457 z"
         style="color:#000000;font-style:normal;font-variant:normal;font-weight:normal;font-stretch:normal;font-size:medium;line-height:normal;font-family:sans-serif;font-variant-ligatures:normal;font-variant-position:normal;font-variant-caps:normal;font-variant-numeric:normal;font-variant-alternates:normal;font-feature-settings:normal;text-indent:0;text-align:start;text-decoration:none;text-decoration-line:none;text-decoration-style:solid;text-decoration-color:#000000;letter-spacing:normal;word-spacing:normal;text-transform:none;writing-mode:lr-tb;direction:ltr;text-orientation:mixed;dominant-baseline:auto;baseline-shift:baseline;text-anchor:start;white-space:normal;shape-padding:0;clip-rule:nonzero;display:inline;overflow:visible;visibility:visible;opacity:1;isolation:auto;mix-blend-mode:normal;color-interpolation:sRGB;color-interpolation-filters:linearRGB;solid-color:#000000;solid-opacity:1;vector-effect:none;fill:#000000;fill-opacity:1;fill-rule:nonzero;stroke:none;stroke-width:100;stroke-linecap:butt;stroke-linejoin:round;stroke-miterlimit:4;stroke-dasharray:none;stroke-dashoffset:0;stroke-opacity:1;paint-order:normal;color-rendering:auto;image-rendering:auto;shape-rendering:auto;text-rendering:auto;enable-background:accumulate" />
      <path
         id="path5050"
         d="m 287.3719,-25.86165 a 85.52626,85.52626 0 0 1 -85.5263,85.52626 85.52626,85.52626 0 0 1 -85.5263,-85.52626 85.52626,85.52626 0 0 1 85.5263,-85.52625 85.52626,85.52626 0 0 1 85.5263,85.52625 z"
         style="color:#000000;clip-rule:nonzero;display:inline;overflow:visible;visibility:visible;opacity:1;isolation:auto;mix-blend-mode:normal;color-interpolation:sRGB;color-interpolation-filters:linearRGB;solid-color:#000000;solid-opacity:1;fill:#000000;fill-opacity:1;fill-rule:nonzero;stroke:none;stroke-width:99.9999924;stroke-linecap:butt;stroke-linejoin:round;stroke-miterlimit:4;stroke-dasharray:none;stroke-dashoffset:0;stroke-opacity:1;paint-order:normal;color-rendering:auto;image-rendering:auto;shape-rendering:auto;text-rendering:auto;enable-background:accumulate"
         transform="scale(-1,1)" />
      <path
         id="circle5052"
         d="m 287.3719,224.3026 a 85.52626,85.52626 0 0 1 -85.5263,85.5263 85.52626,85.52626 0 0 1 -85.5263,-85.5263 85.52626,85.52626 0 0 1 85.5263,-85.5263 85.52626,85.52626 0 0 1 85.5263,85.5263 z"
         style="color:#000000;clip-rule:nonzero;display:inline;overflow:visible;visibility:visible;opacity:1;isolation:auto;mix-blend-mode:normal;color-interpolation:sRGB;color-interpolation-filters:linearRGB;solid-color:#000000;solid-opacity:1;fill:#000000;fill-opacity:1;fill-rule:nonzero;stroke:none;stroke-width:99.9999924;stroke-linecap:butt;stroke-linejoin:round;stroke-miterlimit:4;stroke-dasharray:none;stroke-dashoffset:0;stroke-opacity:1;paint-order:normal;color-rendering:auto;image-rendering:auto;shape-rendering:auto;text-rendering:auto;enable-background:accumulate"
         transform="scale(-1,1)" />
    </g>
  </g>
</svg>

<svg viewBox="0 0 1012.17 1012.17" height="3825.54" width="3825.54" xmlns="http://www.w3.org/2000/svg"><path d="M42.33-379.18a488.01 488.01 0 0 1 345.03 142.92 488 488 0 0 1 142.92 345.03A488 488 0 0 1 387.36 453.8 488.01 488.01 0 0 1 42.33 596.7 488 488 0 0 1-302.69 453.8a488.01 488.01 0 0 1-142.92-345.03A488 488 0 0 1-302.7-236.26 488 488 0 0 1 42.33-379.18z" style="color:#000;font-style:normal;font-variant:normal;font-weight:400;font-stretch:normal;font-size:medium;line-height:normal;font-family:sans-serif;font-variant-ligatures:normal;font-variant-position:normal;font-variant-caps:normal;font-variant-numeric:normal;font-variant-alternates:normal;font-feature-settings:normal;text-indent:0;text-align:start;text-decoration:none;text-decoration-line:none;text-decoration-style:solid;text-decoration-color:#000;letter-spacing:normal;word-spacing:normal;text-transform:none;writing-mode:lr-tb;direction:ltr;text-orientation:mixed;dominant-baseline:auto;baseline-shift:baseline;text-anchor:start;white-space:normal;shape-padding:0;clip-rule:nonzero;display:inline;overflow:visible;visibility:visible;opacity:1;isolation:auto;mix-blend-mode:normal;color-interpolation:sRGB;color-interpolation-filters:linearRGB;solid-color:#000;solid-opacity:1;vector-effect:none;fill:red;fill-opacity:1;fill-rule:nonzero;stroke:none;stroke-width:96.4152;stroke-linecap:butt;stroke-linejoin:round;stroke-miterlimit:4;stroke-dasharray:none;stroke-dashoffset:0;stroke-opacity:1;paint-order:normal;color-rendering:auto;image-rendering:auto;shape-rendering:auto;text-rendering:auto;enable-background:accumulate" transform="matrix(-1 0 0 1 548.42 397.32)"/><path d="M34.73-245.34c104.65-2.12 208.3 42.07 279.08 126.49 107.85 128.63 110.43 316.16 6.15 447.7-104.28 131.54-287.44 171.83-437.3 96.18l45.07-89.27a253.79 253.79 0 0 0 313.87-69.03 253.79 253.79 0 0 0-4.41-321.33A253.79 253.79 0 0 0-78.45-115l-47.5-87.99a352.8 352.8 0 0 1 160.68-42.35z" style="color:#000;font-style:normal;font-variant:normal;font-weight:400;font-stretch:normal;font-size:medium;line-height:normal;font-family:sans-serif;font-variant-ligatures:normal;font-variant-position:normal;font-variant-caps:normal;font-variant-numeric:normal;font-variant-alternates:normal;font-feature-settings:normal;text-indent:0;text-align:start;text-decoration:none;text-decoration-line:none;text-decoration-style:solid;text-decoration-color:#000;letter-spacing:normal;word-spacing:normal;text-transform:none;writing-mode:lr-tb;direction:ltr;text-orientation:mixed;dominant-baseline:auto;baseline-shift:baseline;text-anchor:start;white-space:normal;shape-padding:0;clip-rule:nonzero;display:inline;overflow:visible;visibility:visible;opacity:1;isolation:auto;mix-blend-mode:normal;color-interpolation:sRGB;color-interpolation-filters:linearRGB;solid-color:#000;solid-opacity:1;vector-effect:none;fill:#000;fill-opacity:1;fill-rule:nonzero;stroke:none;stroke-width:100;stroke-linecap:butt;stroke-linejoin:round;stroke-miterlimit:4;stroke-dasharray:none;stroke-dashoffset:0;stroke-opacity:1;paint-order:normal;color-rendering:auto;image-rendering:auto;shape-rendering:auto;text-rendering:auto;enable-background:accumulate" transform="matrix(-1 0 0 1 548.42 397.32)"/><path d="M287.37-25.86a85.53 85.53 0 0 1-85.52 85.52 85.53 85.53 0 0 1-85.53-85.52 85.53 85.53 0 0 1 85.53-85.53 85.53 85.53 0 0 1 85.52 85.53zM287.37 224.3a85.53 85.53 0 0 1-85.52 85.53 85.53 85.53 0 0 1-85.53-85.53 85.53 85.53 0 0 1 85.53-85.52 85.53 85.53 0 0 1 85.52 85.52z" style="color:#000;clip-rule:nonzero;display:inline;overflow:visible;visibility:visible;opacity:1;isolation:auto;mix-blend-mode:normal;color-interpolation:sRGB;color-interpolation-filters:linearRGB;solid-color:#000;solid-opacity:1;fill:#000;fill-opacity:1;fill-rule:nonzero;stroke:none;stroke-width:99.9999924;stroke-linecap:butt;stroke-linejoin:round;stroke-miterlimit:4;stroke-dasharray:none;stroke-dashoffset:0;stroke-opacity:1;paint-order:normal;color-rendering:auto;image-rendering:auto;shape-rendering:auto;text-rendering:auto;enable-background:accumulate" transform="translate(548.42 397.32)"/><path d="M42.33-397.32A506.15 506.15 0 0 1 400.2-249.09a506.15 506.15 0 0 1 148.23 357.86 506.15 506.15 0 0 1-148.23 357.86A506.15 506.15 0 0 1 42.33 614.86a506.15 506.15 0 0 1-357.85-148.24 506.15 506.15 0 0 1-148.23-357.85A506.15 506.15 0 0 1-315.52-249.1 506.15 506.15 0 0 1 42.33-397.32zm0 100A406.03 406.03 0 0 0-244.8-178.38a406.02 406.02 0 0 0-118.94 287.15A406.02 406.02 0 0 0-244.81 395.9 406.03 406.03 0 0 0 42.33 514.86 406.02 406.02 0 0 0 329.48 395.9a406.02 406.02 0 0 0 118.94-287.14 406.02 406.02 0 0 0-118.94-287.15A406.02 406.02 0 0 0 42.33-297.32z" style="color:#000;font-style:normal;font-variant:normal;font-weight:400;font-stretch:normal;font-size:medium;line-height:normal;font-family:sans-serif;font-variant-ligatures:normal;font-variant-position:normal;font-variant-caps:normal;font-variant-numeric:normal;font-variant-alternates:normal;font-feature-settings:normal;text-indent:0;text-align:start;text-decoration:none;text-decoration-line:none;text-decoration-style:solid;text-decoration-color:#000;letter-spacing:normal;word-spacing:normal;text-transform:none;writing-mode:lr-tb;direction:ltr;text-orientation:mixed;dominant-baseline:auto;baseline-shift:baseline;text-anchor:start;white-space:normal;shape-padding:0;clip-rule:nonzero;display:inline;overflow:visible;visibility:visible;opacity:1;isolation:auto;mix-blend-mode:normal;color-interpolation:sRGB;color-interpolation-filters:linearRGB;solid-color:#000;solid-opacity:1;vector-effect:none;fill:#000;fill-opacity:1;fill-rule:nonzero;stroke:none;stroke-width:100;stroke-linecap:butt;stroke-linejoin:round;stroke-miterlimit:4;stroke-dasharray:none;stroke-dashoffset:0;stroke-opacity:1;paint-order:normal;color-rendering:auto;image-rendering:auto;shape-rendering:auto;text-rendering:auto;enable-background:accumulate" transform="matrix(-1 0 0 1 548.42 397.32)"/><path d="M34.73-245.34c104.65-2.12 208.3 42.07 279.08 126.49 107.85 128.63 110.43 316.16 6.15 447.7-104.28 131.54-287.44 171.83-437.3 96.18l45.07-89.27a253.79 253.79 0 0 0 313.87-69.03 253.79 253.79 0 0 0-4.41-321.33A253.79 253.79 0 0 0-78.45-115l-47.5-87.99a352.8 352.8 0 0 1 160.68-42.35z" style="color:#000;font-style:normal;font-variant:normal;font-weight:400;font-stretch:normal;font-size:medium;line-height:normal;font-family:sans-serif;font-variant-ligatures:normal;font-variant-position:normal;font-variant-caps:normal;font-variant-numeric:normal;font-variant-alternates:normal;font-feature-settings:normal;text-indent:0;text-align:start;text-decoration:none;text-decoration-line:none;text-decoration-style:solid;text-decoration-color:#000;letter-spacing:normal;word-spacing:normal;text-transform:none;writing-mode:lr-tb;direction:ltr;text-orientation:mixed;dominant-baseline:auto;baseline-shift:baseline;text-anchor:start;white-space:normal;shape-padding:0;clip-rule:nonzero;display:inline;overflow:visible;visibility:visible;opacity:1;isolation:auto;mix-blend-mode:normal;color-interpolation:sRGB;color-interpolation-filters:linearRGB;solid-color:#000;solid-opacity:1;vector-effect:none;fill:#000;fill-opacity:1;fill-rule:nonzero;stroke:none;stroke-width:100;stroke-linecap:butt;stroke-linejoin:round;stroke-miterlimit:4;stroke-dasharray:none;stroke-dashoffset:0;stroke-opacity:1;paint-order:normal;color-rendering:auto;image-rendering:auto;shape-rendering:auto;text-rendering:auto;enable-background:accumulate" transform="matrix(-1 0 0 1 548.42 397.32)"/><path d="M287.37-25.86a85.53 85.53 0 0 1-85.52 85.52 85.53 85.53 0 0 1-85.53-85.52 85.53 85.53 0 0 1 85.53-85.53 85.53 85.53 0 0 1 85.52 85.53zM287.37 224.3a85.53 85.53 0 0 1-85.52 85.53 85.53 85.53 0 0 1-85.53-85.53 85.53 85.53 0 0 1 85.53-85.52 85.53 85.53 0 0 1 85.52 85.52z" style="color:#000;clip-rule:nonzero;display:inline;overflow:visible;visibility:visible;opacity:1;isolation:auto;mix-blend-mode:normal;color-interpolation:sRGB;color-interpolation-filters:linearRGB;solid-color:#000;solid-opacity:1;fill:#000;fill-opacity:1;fill-rule:nonzero;stroke:none;stroke-width:99.9999924;stroke-linecap:butt;stroke-linejoin:round;stroke-miterlimit:4;stroke-dasharray:none;stroke-dashoffset:0;stroke-opacity:1;paint-order:normal;color-rendering:auto;image-rendering:auto;shape-rendering:auto;text-rendering:auto;enable-background:accumulate" transform="translate(548.42 397.32)"/></svg>
